icons/editor-text-input-2-filled.svg

<svg width="24" height="24" viewBox="0 0 24 24" fill="none" xmlns="http://www.w3.org/2000/svg">
<g id="text-input-02">
<path id="Icon" d="M6.60039 12.6004V11.4004M21.6004 9.60039V14.4004C21.6004 15.0631 21.0631 15.6004 20.4004 15.6004H3.60039C2.93765 15.6004 2.40039 15.0631 2.40039 14.4004V9.60039C2.40039 8.93765 2.93765 8.40039 3.60039 8.40039H20.4004C21.0631 8.40039 21.6004 8.93765 21.6004 9.60039Z" stroke="black" stroke-width="2" stroke-linecap="round" stroke-linejoin="round"/>
</g>
</svg>

<svg xmlns="http://www.w3.org/2000/svg" width="24" height="24" fill="none" viewBox="0 0 24 24"><path stroke="currentColor" stroke-linecap="round" stroke-linejoin="round" stroke-width="2" d="M6.6 12.6v-1.2m15-1.8v4.8a1.2 1.2 0 0 1-1.2 1.2H3.6a1.2 1.2 0 0 1-1.2-1.2V9.6a1.2 1.2 0 0 1 1.2-1.2h16.8a1.2 1.2 0 0 1 1.2 1.2"/></svg>
